svg/fluentui-system-icons/ic_fluent_task_list_square_ltr_20_filled.svg

<svg width="20" height="20" viewBox="0 0 20 20" fill="none" xmlns="http://www.w3.org/2000/svg">
<path d="M3 6C3 4.34315 4.34315 3 6 3H14C15.6569 3 17 4.34315 17 6V14C17 15.6569 15.6569 17 14 17H6C4.34315 17 3 15.6569 3 14V6ZM9.35355 7.10356C9.54881 6.9083 9.54882 6.59172 9.35357 6.39646C9.15831 6.20119 8.84173 6.20118 8.64646 6.39644L7.23436 7.80847L6.8372 7.44572C6.6333 7.2595 6.31704 7.27382 6.13081 7.47772C5.94459 7.68162 5.95891 7.99788 6.16281 8.1841L6.91281 8.8691C7.11021 9.04939 7.41451 9.04251 7.60355 8.85347L9.35355 7.10356ZM9.35357 11.3965C9.15831 11.2012 8.84173 11.2012 8.64646 11.3964L7.23436 12.8085L6.8372 12.4457C6.6333 12.2595 6.31704 12.2738 6.13081 12.4777C5.94459 12.6816 5.95891 12.9979 6.16281 13.1841L6.91281 13.8691C7.11021 14.0494 7.41451 14.0425 7.60355 13.8535L9.35355 12.1036C9.54881 11.9083 9.54882 11.5917 9.35357 11.3965ZM11 12C10.7239 12 10.5 12.2239 10.5 12.5C10.5 12.7761 10.7239 13 11 13H13.5C13.7761 13 14 12.7761 14 12.5C14 12.2239 13.7761 12 13.5 12H11ZM10.5 7.5C10.5 7.77614 10.7239 8 11 8H13.5C13.7761 8 14 7.77614 14 7.5C14 7.22386 13.7761 7 13.5 7H11C10.7239 7 10.5 7.22386 10.5 7.5Z" fill="#212121"/>
</svg>

<svg xmlns="http://www.w3.org/2000/svg" width="20" height="20"><path d="M3 6a3 3 0 0 1 3-3h8a3 3 0 0 1 3 3v8a3 3 0 0 1-3 3H6a3 3 0 0 1-3-3V6Zm6.354 1.104a.5.5 0 0 0-.708-.708L7.234 7.808l-.397-.362a.5.5 0 0 0-.674.738l.75.685a.5.5 0 0 0 .69-.016l1.75-1.75Zm0 4.292a.5.5 0 0 0-.708 0l-1.412 1.412-.397-.362a.5.5 0 0 0-.674.738l.75.685a.5.5 0 0 0 .69-.015l1.75-1.75a.5.5 0 0 0 0-.707ZM11 12a.5.5 0 0 0 0 1h2.5a.5.5 0 0 0 0-1H11Zm-.5-4.5a.5.5 0 0 0 .5.5h2.5a.5.5 0 0 0 0-1H11a.5.5 0 0 0-.5.5Z"/></svg>
